packages/match-icons/product/svg/notify.svg

<svg fill="none" height="32" viewBox="0 0 32 32" width="32" xmlns="http://www.w3.org/2000/svg" xmlns:xlink="http://www.w3.org/1999/xlink"><clipPath id="a"><path d="m0 0h32v32h-32z"/></clipPath><g clip-path="url(#a)" fill="#394762"><path d="m25 10c1.1046 0 2-.89543 2-2s-.8954-2-2-2-2 .89543-2 2 .8954 2 2 2z"/><path d="m32 17v3.5c0 .663-.2634 1.2989-.7322 1.7678-.4689.4688-1.1048.7322-1.7678.7322h-14.12l-6.47 5.66c-.25689.2272-.57487.3739-.91444.4219s-.68576-.0048-.99556-.1519c-.3029-.1423-.55833-.3689-.7357-.6527-.17736-.2838-.26913-.6127-.2643-.9473v-4.33h-3.5c-.66304 0-1.29893-.2634-1.767767-.7322-.468841-.4689-.732233-1.1048-.732233-1.7678v-15c0-.66304.263392-1.29892.732233-1.76776.468837-.46884 1.104727-.73224 1.767767-.73224h11.5c.2652 0 .5196.10536.7071.2929.1875.18753.2929.44189.2929.7071 0 .26522-.1054.51957-.2929.70711s-.4419.29289-.7071.29289h-11.5c-.13261 0-.25979.05268-.35355.14645-.09377.09377-.14645.22095-.14645.35355v15c0 .1326.05268.2598.14645.3536.09376.0937.22094.1464.35355.1464h4.5c.13161-.0008.26207.0245.38391.0742.12183.0498.23265.1231.32609.2158.09268.0934.16601.2043.21577.3261.04977.1218.07499.2523.07423.3839v4.77l6.33-5.53c.1863-.1595.4248-.2449.67-.24h14.5c.1326 0 .2598-.0527.3536-.1464.0937-.0938.1464-.221.1464-.3536v-3.5c0-.2652.1054-.5196.2929-.7071s.4419-.2929.7071-.2929.5196.1054.7071.2929.2929.4419.2929.7071zm-14-9c0-1.38447.4105-2.73784 1.1797-3.88899.7692-1.15114 1.8624-2.04835 3.1415-2.57816 1.2791-.52982 2.6866-.66844 4.0444-.39834 1.3579.27009 2.6052.93678 3.5841 1.91575.979.97896 1.6457 2.22624 1.9158 3.58411s.1315 2.76533-.3983 4.04443c-.5299 1.2791-1.4271 2.3723-2.5782 3.1415-1.1512.7692-2.5045 1.1797-3.889 1.1797-1.8565 0-3.637-.7375-4.9497-2.0503-1.3128-1.3127-2.0503-3.09318-2.0503-4.9497zm2 0c0 .98891.2932 1.95561.8427 2.7779.5494.8222 1.3303 1.4631 2.2439 1.8415s1.9189.4775 2.8889.2845c.9699-.1929 1.8608-.6691 2.56-1.3684.6993-.6992 1.1755-1.59014 1.3684-2.56005.193-.9699.0939-1.97523-.2845-2.88886s-1.0193-1.69453-1.8415-2.24394c-.8223-.5494-1.789-.84265-2.7779-.84265-1.3261 0-2.5979.52679-3.5355 1.46447-.9377.93768-1.4645 2.20945-1.4645 3.53553z"/></g></svg>

<svg width="32" height="32" viewBox="0 0 32 32" fill="none" xmlns="http://www.w3.org/2000/svg">
<g clip-path="url(#clip0)">
<path d="M25 10C26.1046 10 27 9.10457 27 8C27 6.89543 26.1046 6 25 6C23.8954 6 23 6.89543 23 8C23 9.10457 23.8954 10 25 10Z" fill="#394762"/>
<path d="M32 17V20.5C32 21.163 31.7366 21.7989 31.2678 22.2678C30.7989 22.7366 30.163 23 29.5 23H15.38L8.91 28.66C8.65311 28.8872 8.33513 29.0339 7.99556 29.0819C7.65599 29.1299 7.3098 29.0771 7 28.93C6.6971 28.7877 6.44167 28.5611 6.2643 28.2773C6.08694 27.9935 5.99517 27.6646 6 27.33V23H2.5C1.83696 23 1.20107 22.7366 0.732233 22.2678C0.263392 21.7989 0 21.163 0 20.5L0 5.5C0 4.83696 0.263392 4.20108 0.732233 3.73224C1.20107 3.2634 1.83696 3 2.5 3H14C14.2652 3 14.5196 3.10536 14.7071 3.2929C14.8946 3.48043 15 3.73479 15 4C15 4.26522 14.8946 4.51957 14.7071 4.70711C14.5196 4.89465 14.2652 5 14 5H2.5C2.36739 5 2.24021 5.05268 2.14645 5.14645C2.05268 5.24022 2 5.3674 2 5.5V20.5C2 20.6326 2.05268 20.7598 2.14645 20.8536C2.24021 20.9473 2.36739 21 2.5 21H7C7.13161 20.9992 7.26207 21.0245 7.38391 21.0742C7.50574 21.124 7.61656 21.1973 7.71 21.29C7.80268 21.3834 7.87601 21.4943 7.92577 21.6161C7.97554 21.7379 8.00076 21.8684 8 22V26.77L14.33 21.24C14.5163 21.0805 14.7548 20.9951 15 21H29.5C29.6326 21 29.7598 20.9473 29.8536 20.8536C29.9473 20.7598 30 20.6326 30 20.5V17C30 16.7348 30.1054 16.4804 30.2929 16.2929C30.4804 16.1054 30.7348 16 31 16C31.2652 16 31.5196 16.1054 31.7071 16.2929C31.8946 16.4804 32 16.7348 32 17ZM18 8C18 6.61553 18.4105 5.26216 19.1797 4.11101C19.9489 2.95987 21.0421 2.06266 22.3212 1.53285C23.6003 1.00303 25.0078 0.86441 26.3656 1.13451C27.7235 1.4046 28.9708 2.07129 29.9497 3.05026C30.9287 4.02922 31.5954 5.2765 31.8655 6.63437C32.1356 7.99224 31.997 9.3997 31.4672 10.6788C30.9373 11.9579 30.0401 13.0511 28.889 13.8203C27.7378 14.5895 26.3845 15 25 15C23.1435 15 21.363 14.2625 20.0503 12.9497C18.7375 11.637 18 9.85652 18 8ZM20 8C20 8.98891 20.2932 9.95561 20.8427 10.7779C21.3921 11.6001 22.173 12.241 23.0866 12.6194C24.0002 12.9978 25.0055 13.0969 25.9755 12.9039C26.9454 12.711 27.8363 12.2348 28.5355 11.5355C29.2348 10.8363 29.711 9.94536 29.9039 8.97545C30.0969 8.00555 29.9978 7.00022 29.6194 6.08659C29.241 5.17296 28.6001 4.39206 27.7779 3.84265C26.9556 3.29325 25.9889 3 25 3C23.6739 3 22.4021 3.52679 21.4645 4.46447C20.5268 5.40215 20 6.67392 20 8V8Z" fill="#394762"/>
</g>
<defs>
<clipPath id="clip0">
<rect width="32" height="32" fill="white"/>
</clipPath>
</defs>
</svg>
